WorldWind/resources/milstd2525/metoc/wos-itr---p----.svg

<?xml version="1.0" encoding="UTF-8" standalone="no"?>
<!-- SVG content generated using Symbology Configuration Management System (SCMS) -->

<!-- Systematic Software Engineering Ltd. - www.systematic.co.uk - do not remove  -->

<svg
    xmlns:dc="http://purl.org/dc/elements/1.1/"
    xmlns:cc="http://creativecommons.org/ns#"
    xmlns:rdf="http://www.w3.org/1999/02/22-rdf-syntax-ns#"
    xmlns:svg="http://www.w3.org/2000/svg"
    xmlns="http://www.w3.org/2000/svg"
    xmlns:sodipodi="http://sodipodi.sourceforge.net/DTD/sodipodi-0.dtd"
    xmlns:inkscape="http://www.inkscape.org/namespaces/inkscape"
    id="WOS-ITR---P----"
    width="360"
    height="210"
    viewBox="0 0 360 210"
    version="1.1"
    inkscape:version="0.48.2 r9819"
    sodipodi:docname="wos-itr---p----.svg">
    <metadata
        id="metadata12">
        <rdf:RDF>
            <cc:Work
                rdf:about="">
                <dc:format>image/svg+xml</dc:format>
                <dc:type
                    rdf:resource="http://purl.org/dc/dcmitype/StillImage"/>
            </cc:Work>
        </rdf:RDF>
    </metadata>
    <defs
        id="defs10"/>
    <sodipodi:namedview
        pagecolor="#ffffff"
        bordercolor="#666666"
        borderopacity="1"
        objecttolerance="10"
        gridtolerance="10"
        guidetolerance="10"
        inkscape:pageopacity="0"
        inkscape:pageshadow="2"
        inkscape:window-width="640"
        inkscape:window-height="480"
        id="namedview8"
        showgrid="false"
        inkscape:zoom="0.59"
        inkscape:cx="180"
        inkscape:cy="105"
        inkscape:window-x="0"
        inkscape:window-y="0"
        inkscape:window-maximized="0"
        inkscape:current-layer="WOS-ITR---P----"/>
    <g
        id="g3"
        transform="translate(-20,-95)">
        <svg
            viewBox="0 0 400 400"
            id="_0.WOS-ITR---P----"
            width="400"
            height="400"
            version="1.1"
            inkscape:version="0.48.2 r9819">
            <path
                d="m 25,300 70,0 0,-200 70,0 0,200 70,0 0,-200 70,0 0,200 70,0"
                style="fill:none;stroke:#000000;stroke-width:10"
                id="path6"
                inkscape:connector-curvature="0"/>
        </svg>
    </g>
</svg>

<?xml version="1.0"?>
<!DOCTYPE svg PUBLIC "-//W3C//DTD SVG 1.1//EN" "http://www.w3.org/Graphics/SVG/1.1/DTD/svg11.dtd" >
<!-- SVG content generated using Symbology Configuration Management System (SCMS) -->
<!-- Systematic Software Engineering Ltd. - www.systematic.co.uk - do not remove  -->
<svg id="WOS-ITR---P----" width="400px" height="400px" viewBox="0 0 400 400">
    <g>
        <svg viewBox="0 0 400 400" id="_0.WOS-ITR---P----" width="400px" height="400px">
            <path d="M25 300 L95 300 L95 100 L165 100 L165 300 L235 300 L235 100 L305 100 L305 300 L375
			300" style="fill:none;stroke:rgb(0,0,0);stroke-width:10"></path>
        </svg>

    </g>
</svg>
